src/images/close.svg

<svg width="20px" height="20px" viewBox="0 0 20 20" version="1.1" xmlns="http://www.w3.org/2000/svg" xmlns:xlink="http://www.w3.org/1999/xlink">
    <defs></defs>
    <g id="Page-1" stroke="none" stroke-width="1" fill="#ffffff" fill-rule="evenodd">
        <path d="M10.3957708,8.43391377 L2.26404286,0.302185788 L0.849829296,1.71639935 L8.98155728,9.84812733 L0.849829296,17.9798553 L2.26404286,19.3940689 L10.3957708,11.2623409 L18.5274988,19.3940689 L19.9417124,17.9798553 L11.8099844,9.84812733 L19.9417124,1.71639935 L18.5274988,0.302185788 L10.3957708,8.43391377 Z" id="Combined-Shape" fill="#ffffff"></path>
    </g>
</svg>

<svg width="20" height="20" viewBox="0 0 20 20" xmlns="http://www.w3.org/2000/svg"><path d="M10.396 8.434L2.264.302.85 1.716l8.132 8.132L.85 17.98l1.414 1.414 8.132-8.132 8.131 8.132 1.415-1.414-8.132-8.132 8.132-8.132L18.527.302l-8.131 8.132z" fill="#fff" fill-rule="evenodd"/></svg>
